svg/emoji_u1f6fa.svg

<?xml version="1.0" encoding="utf-8"?>
<!-- Generator: Adobe Illustrator 25.2.3, SVG Export Plug-In . SVG Version: 6.00 Build 0)  -->
<svg version="1.1" id="Layer_2" xmlns="http://www.w3.org/2000/svg" xmlns:xlink="http://www.w3.org/1999/xlink" x="0px" y="0px"
	 viewBox="0 0 128 128" style="enable-background:new 0 0 128 128;" xml:space="preserve">
<path style="fill:#2F7C31;" d="M72.67,71.53c0,0-21.87-0.21-22.16,0.02c-0.3,0.23-0.52,1.26-0.52,3.52c0,2.27,1.11,3.17,1.53,3.2
	c1.18,0.08,3.28,0,3.28,0s-1.01,2.44-1.01,3.36s0.17,14.62,0.17,14.62l18.49-1.6L72.67,71.53z"/>
<path style="fill:#2F7C31;" d="M96.98,71.71l-14.37,0.3c0,0-1.09,1.26-1.01,3.28c0.08,2.02,1.24,3.53,1.24,3.53l3.52,0.15
	c0,0-0.15,1.87-0.15,3.74c0,0.88-0.11,12.08-0.11,12.08l3.23,1.33l12.6-9.08L96.98,71.71z"/>
<polygon style="fill:#4E433D;" points="29.08,83.06 24.21,87.52 34.29,98.61 42.19,97.1 "/>
<path style="fill:#AFE3FB;" d="M36.07,62.46l-13.49-2.74c0,0-0.06-1.24,0.53-3.55c1.6-6.28,9.71-24.02,9.71-24.02l9.78-2.82
	l0.18,31.89L36.07,62.46z"/>
<path style="fill:#B0B0B0;" d="M70.9,33.04c0.12,1.39-0.02,36.05-0.02,36.05l6.71-0.99l0.13-35.16L70.9,33.04z"/>
<path style="fill:#FFB803;" d="M23.91,70.39l-1.35-2.25c0,0-0.25-2.63-0.14-5.15c0.05-1.15,0.14-3.33,0.14-3.33
	s13.08,0.07,14.66,0.07s3.35-1.32,3.35-4.14s0.41-21.46,0.41-21.46L27.88,22.2l-0.79-4.49c0,0,3.61-2.82,8.72-2.29
	c5.11,0.53,8.11,4.49,8.11,4.49s58.85,0.19,61.15,0.18c6.02-0.03,8.45,1.33,12.32,5.72c3.03,3.43,4.68,9.7,5.03,12.78
	c0.35,3.08,3,23.79,2.91,25.29s-0.35,3.52-1.94,3.79c-1.59,0.26-4.05,1.5-4.05,1.5l-17.62,0.62l-2.83-0.13c0,0-0.1-28.8-0.01-30.47
	c0.09-1.67-0.68-3.44-2.97-3.62c-2.29-0.18-14.82,0.13-24.77,0.04c-9.96-0.09-24.51-0.32-24.51-0.32L46.35,67.6l-13.37,4.47
	L23.91,70.39z"/>
<path style="fill:#536F7D;" d="M17.29,19.36c-0.17,1.57,14.51,14.66,14.78,14.66c0.26,0,8.83,0.26,8.99,0.17
	c0.33-0.18-13.81-16.68-13.81-16.68S17.46,17.79,17.29,19.36z"/>
<path style="fill:#02AB46;" d="M22.51,67.63l23.87-0.12L46.3,94.42c0,0,8.57-0.01,10.55-0.01c1.98,0,3.6-1.28,3.72-3.49
	c0.12-2.21-0.12-8.6-0.12-9.99s0.58-2.44,2.67-2.56c2.09-0.12,7.74-0.03,7.74-0.03V67.71l6.75-0.05c0,0-0.09,20.84,0.02,22.7
	s1.17,3.71,2.8,3.71s12.2,0.12,12.2,0.12l1.04-5.54c0,0-1.04-10.03,0.59-14.1c1.63-4.07,4.61-6.53,4.61-6.53l24.5-0.36
	c0,0,0.29,28.96,0.29,29.78c0,0.81-1.39,3.49-1.39,3.49l-38.47-0.12l-47.65-0.12l-5.58-3.49c0,0,1.16-0.58,3.02-0.7
	c1.86-0.12,3.14-1.28,2.21-2.79s-8.12-7.29-11.16-15.34C22.71,73.21,22.51,67.63,22.51,67.63z"/>
<path style="fill:#4E433D;" d="M11.64,121.14c-7.11-4.76-8.97-14.2-4.21-21.31s14.33-9.08,21.29-4.11
	c7.64,5.46,9.01,14.39,4.25,21.5C28.21,124.33,18.75,125.9,11.64,121.14z"/>
<path style="fill:#1C1D1E;" d="M22.86,114.32c3.6-1.61,4.93-5.58,3.43-9.06c-1.26-2.91-4.99-4.95-8.47-3.49
	c-3.34,1.41-5.44,5.04-4,8.86C15.17,114.22,19.08,116.01,22.86,114.32z"/>
<path style="fill:#4E433D;" d="M18.63,110.56c-1.35-0.9-1.71-2.69-0.81-4.03s2.71-1.71,4.03-0.77c1.45,1.04,1.71,2.73,0.81,4.07
	C21.77,111.17,19.98,111.46,18.63,110.56z"/>
<path style="fill:#2F7C31;" d="M83.34,107.38c0,0-1.82-22.41,20.16-22.93s20.68,23.01,20.25,23.36S83.34,107.38,83.34,107.38z"/>
<path style="fill:#4E433D;" d="M119.53,107.54c0,9.14-7.26,16.4-16.4,16.4s-16.57-7.31-16.3-16.45c0.3-10.03,7.41-16.55,16.55-16.55
	S119.53,98.4,119.53,107.54z"/>
<path style="fill:#1C1D1E;" d="M106.81,101.64c-3.56-2.24-7.88-1.06-10.07,2.34c-1.83,2.85-1.42,7.37,1.94,9.58
	c3.23,2.12,7.71,1.83,10.24-1.72C111.29,108.52,110.56,103.99,106.81,101.64z"/>
<path style="fill:#4E433D;" d="M105.99,107.63c0,1.73-1.37,3.11-3.1,3.11s-3.13-1.39-3.08-3.12c0.06-1.9,1.4-3.14,3.13-3.14
	C104.67,104.48,105.99,105.89,105.99,107.63z"/>
<path style="fill:#FF8B00;" d="M100.73,72.35c-0.52,0.35-0.49,4.9-0.25,4.98c0.38,0.13,13.62,0.13,13.62,0.13l0.13-4.92
	C114.23,72.54,100.92,72.23,100.73,72.35z"/>
<path style="fill:#2F7C31;" d="M35.37,105.27c0,0,4.27,0.27,4.71-0.04c0.44-0.32-9.19-19.34-21.29-21.08
	c-8.28-1.19-13.31,2.39-15.2,6.43c-1.87,3.99-1.23,8.45-1.07,8.58c0.32,0.25,10.3-4.95,18.92-2.96
	C30.65,98.32,35.37,105.27,35.37,105.27z"/>
<path style="fill:#B0B0B0;" d="M20.68,79.23c0,1.83-4.6,6.24-10.22,6.69c-2.33,0.18-5.21-2.2-5.11-6.94
	c0.12-5.23,2.33-6.88,4.6-6.94C15.64,71.88,20.68,76.89,20.68,79.23z"/>
<path style="fill:#FFFFFF;" d="M9.23,82.82c-1.26,0.06-2.33-1.77-2.21-4.42c0.09-1.95,1.07-3.85,2.02-3.85
	c1.2,0,2.02,1.83,2.02,4.23C11.06,80.68,10.36,82.77,9.23,82.82z"/>
</svg>

<?xml version='1.0' encoding='utf-8'?>
<svg xmlns="http://www.w3.org/2000/svg" width="128px" height="128px" version="1.1" xml:space="preserve" style="fill-rule:evenodd;clip-rule:evenodd;stroke-linejoin:round;stroke-miterlimit:2;" viewBox="0 0 128 128"><path d="M72.67,71.53C72.67,71.53 50.8,71.32 50.51,71.55C50.21,71.78 49.99,72.81 49.99,75.07C49.99,77.34 51.1,78.24 51.52,78.27C52.7,78.35 54.8,78.27 54.8,78.27C54.8,78.27 53.79,80.71 53.79,81.63C53.79,82.55 53.96,96.25 53.96,96.25L72.45,94.65L72.67,71.53Z" style="fill:#487628;fill-rule:nonzero;" /><path d="M96.98,71.71L82.61,72.01C82.61,72.01 81.52,73.27 81.6,75.29C81.68,77.31 82.84,78.82 82.84,78.82L86.36,78.97C86.36,78.97 86.21,80.84 86.21,82.71C86.21,83.59 86.1,94.79 86.1,94.79L89.33,96.12L101.93,87.04L96.98,71.71Z" style="fill:#487628;fill-rule:nonzero;" /><path d="M29.08,83.06L24.21,87.52L34.29,98.61L42.19,97.1L29.08,83.06Z" style="fill:#3e5259;fill-rule:nonzero;" /><path d="M36.07,62.46L22.58,59.72C22.58,59.72 22.52,58.48 23.11,56.17C24.71,49.89 32.82,32.15 32.82,32.15L42.6,29.33L42.78,61.22L36.07,62.46Z" style="fill:#afe3fb;fill-rule:nonzero;" /><path d="M70.9,33.04C71.02,34.43 70.88,69.09 70.88,69.09L77.59,68.1L77.72,32.94L70.9,33.04Z" style="fill:#b0b0b0;fill-rule:nonzero;" /><path d="M23.91,70.39L22.56,68.14C22.56,68.14 22.31,65.51 22.42,62.99C22.47,61.84 22.56,59.66 22.56,59.66C22.56,59.66 35.64,59.73 37.22,59.73C38.8,59.73 40.57,58.41 40.57,55.59C40.57,52.77 40.98,34.13 40.98,34.13L27.88,22.2L27.09,17.71C27.09,17.71 30.7,14.89 35.81,15.42C40.92,15.95 43.92,19.91 43.92,19.91C43.92,19.91 102.77,20.1 105.07,20.09C111.09,20.06 113.52,21.42 117.39,25.81C120.42,29.24 122.07,35.51 122.42,38.59C122.77,41.67 125.42,62.38 125.33,63.88C125.24,65.38 124.98,67.4 123.39,67.67C121.8,67.93 119.34,69.17 119.34,69.17L101.72,69.79L98.89,69.66C98.89,69.66 98.79,40.86 98.88,39.19C98.97,37.52 98.2,35.75 95.91,35.57C93.62,35.39 81.09,35.7 71.14,35.61C61.18,35.52 46.63,35.29 46.63,35.29L46.35,67.6L32.98,72.07L23.91,70.39Z" style="fill:#ffb803;fill-rule:nonzero;" /><path d="M17.29,19.36C17.12,20.93 31.8,34.02 32.07,34.02C32.33,34.02 40.9,34.28 41.06,34.19C41.39,34.01 27.25,17.51 27.25,17.51C27.25,17.51 17.46,17.79 17.29,19.36Z" style="fill:#536f7d;fill-rule:nonzero;" /><path d="M22.51,67.63L46.38,67.51L46.3,94.42C46.3,94.42 54.87,94.41 56.85,94.41C58.83,94.41 60.45,93.13 60.57,90.92C60.69,88.71 60.45,82.32 60.45,80.93C60.45,79.54 61.03,78.49 63.12,78.37C65.21,78.25 70.86,78.34 70.86,78.34L70.86,67.71L77.61,67.66C77.61,67.66 77.52,88.5 77.63,90.36C77.74,92.22 78.8,94.07 80.43,94.07C82.06,94.07 92.63,94.19 92.63,94.19L93.67,88.65C93.67,88.65 92.63,78.62 94.26,74.55C95.89,70.48 98.87,68.02 98.87,68.02L123.37,67.66C123.37,67.66 123.66,96.62 123.66,97.44C123.66,98.25 122.27,100.93 122.27,100.93L83.8,100.81L36.15,100.69L30.57,97.2C30.57,97.2 31.73,96.62 33.59,96.5C35.45,96.38 36.73,95.22 35.8,93.71C34.87,92.2 27.68,86.42 24.64,78.37C22.71,73.21 22.51,67.63 22.51,67.63Z" style="fill:#7cb342;fill-rule:nonzero;" /><path d="M11.64,121.14C4.53,116.38 2.67,106.94 7.43,99.83C12.19,92.72 21.76,90.75 28.72,95.72C36.36,101.18 37.73,110.11 32.97,117.22C28.21,124.33 18.75,125.9 11.64,121.14Z" style="fill:#3e5259;fill-rule:nonzero;" /><path d="M22.86,114.32C26.46,112.71 27.79,108.74 26.29,105.26C25.03,102.35 21.3,100.31 17.82,101.77C14.48,103.18 12.38,106.81 13.82,110.63C15.17,114.22 19.08,116.01 22.86,114.32Z" style="fill:#1c1d1e;fill-rule:nonzero;" /><path d="M18.63,110.56C17.28,109.66 16.92,107.87 17.82,106.53C18.72,105.19 20.53,104.82 21.85,105.76C23.3,106.8 23.56,108.49 22.66,109.83C21.77,111.17 19.98,111.46 18.63,110.56Z" style="fill:#3e5259;fill-rule:nonzero;" /><path d="M83.34,107.38C83.34,107.38 81.52,84.97 103.5,84.45C125.48,83.93 124.18,107.46 123.75,107.81C123.32,108.16 83.34,107.38 83.34,107.38Z" style="fill:#487628;fill-rule:nonzero;" /><path d="M119.53,107.54C119.53,116.68 112.27,123.94 103.13,123.94C93.99,123.94 86.56,116.63 86.83,107.49C87.13,97.46 94.24,90.94 103.38,90.94C112.52,90.94 119.53,98.4 119.53,107.54Z" style="fill:#3e5259;fill-rule:nonzero;" /><path d="M106.81,101.64C103.25,99.4 98.93,100.58 96.74,103.98C94.91,106.83 95.32,111.35 98.68,113.56C101.91,115.68 106.39,115.39 108.92,111.84C111.29,108.52 110.56,103.99 106.81,101.64Z" style="fill:#1c1d1e;fill-rule:nonzero;" /><path d="M105.99,107.63C105.99,109.36 104.62,110.74 102.89,110.74C101.16,110.74 99.76,109.35 99.81,107.62C99.87,105.72 101.21,104.48 102.94,104.48C104.67,104.48 105.99,105.89 105.99,107.63Z" style="fill:#3e5259;fill-rule:nonzero;" /><path d="M100.73,72.35C100.21,72.7 100.24,77.25 100.48,77.33C100.86,77.46 114.1,77.46 114.1,77.46L114.23,72.54C114.23,72.54 100.92,72.23 100.73,72.35Z" style="fill:#ff8b00;fill-rule:nonzero;" /><path d="M35.37,105.27C35.37,105.27 39.64,105.54 40.08,105.23C40.52,104.91 30.89,85.89 18.79,84.15C10.51,82.96 5.48,86.54 3.59,90.58C1.72,94.57 2.36,99.03 2.52,99.16C2.84,99.41 12.82,94.21 21.44,96.2C30.65,98.32 35.37,105.27 35.37,105.27Z" style="fill:#487628;fill-rule:nonzero;" /><path d="M20.68,79.23C20.68,81.06 16.08,85.47 10.46,85.92C8.13,86.1 5.25,83.72 5.35,78.98C5.47,73.75 7.68,72.1 9.95,72.04C15.64,71.88 20.68,76.89 20.68,79.23Z" style="fill:#b0b0b0;fill-rule:nonzero;" /><path d="M9.23,82.82C7.97,82.88 6.9,81.05 7.02,78.4C7.11,76.45 8.09,74.55 9.04,74.55C10.24,74.55 11.06,76.38 11.06,78.78C11.06,80.68 10.36,82.77 9.23,82.82Z" style="fill:#fff;fill-rule:nonzero;" /></svg>
